X: 165
T: Owls Hoot At Me
C: Teton Sioux band 1911-1914
N: Derived from sioux160.krn
O: South Dakota, U.S.A.
N: Teton Sioux Music by Frances Densmore, 1918
Z: transcribed to **kern format by Craig Sapp
L: 1/8
M: 3/4
Q: 1/4=58
K: F clef=bass
%%linebreak <none>
F< DF2D C [I:setbarnb 2]| 
C4A,2 | 
D< DF2D C | 
C6 | 
C CD2(3C B, A, | 
G,> A, G,< G,- G,3/ A,/ ||  
[M:2/4]G,4 ||  
[M:3/4]C CD2(3C B, A, ||  
[M:2/4]G, G, A, G, ||  
[M:3/4]F, F,F,2F,3/ F,/ | 
F,6 ||  
[M:2/4]D< D F (F/ D/) | 
D< CC2- | 
C2A,2 | 
D< D F (F/ D/) | 
D< CC2- | 
C4 ||  
[M:3/4]C< CD2(D/ C/) B,/ A,/ | 
G,> A, G,< G,- G,3/ G,/ ||  
[M:2/4]G,4 ||  
[M:3/4]C2D2(3C B, A, ||  
[M:2/4]G,< G, A, G, ||  
[M:3/4]F,> F,F,4 | 
F,2z4 |]  



